X:3
T:Who can count to eleven? [FPPP MPPP MPP]
T:Smoother still, but still quirky: 11/8=(4+4+3)/8
C:Eric Conrad
M:11/8
L:1/8
Q:3/8=100
K:Ador
% Simple i-IV-v-i Dorian mode progression
% Chords and relatives: i=Am (III=C); IV=D (ii=Bm); v=Em (VII=G); [vi0=F#dim]
%%text A Dorian
% Play with the next four lines (comment out/modify) to see how things work
%%MIDI beatstring fpppmpppmpp   % rhythm: bum-dee-dee-dee bum-dee-dee-dee bum-dee-dee
%%MIDI gchord Ghigchigcig       % chord vamp
%%MIDI program 40               % violin/fiddle for melody
%%MIDI chordprog 105            % banjo for chords
P:A
|: z (3B/c/B/ \
| "Am"AceA "C"ceAB "Asus2"AAB/e/ | "G"d3B dBGB dBc | "D"dfad "D7"fdce "Am"cA2 |
AEcA ceAB "Asus2"AAB/e/ | "G"d3B dBBB dBc | "D"dfad "D7"fdce "Am"cA2 |
A3e "C"cAGB "G"dGd | "Em"egBe "Bm"deBd BBd | "D"fdfd d2Ac "Am"AAG |
"Em"BGBG "G"GEDF "D"AFA | "Asus2"ABBA BAA2 z :|
P:B
|: z2 | "Am"AcEA "Asus2"A2AB ea2 | "Em"egfe bgeb "G"gB2 | "Bm"d3B dBAB "D"AA2 |
"Am"AceA ceAB ea2 | "Em"egfe bgeb "G"gB2 | "D"d3f "D7"dfec "Am"AA2 |
AEcA "C"cedg "G"BgB | "Em"egbe "G"gbaf "D"dfd | "Bm"fdBf "D"dBAc "Am"AAE |
"Em"GBEG "Bm"BEDF "D"ADF | "Asus2"ABBA BAA2 z :|
%%center \u00a9 2019 by Eric Conrad
%%text Licensed for general use under Creative Commons Attribution-ShareAlike 4.0 International Public License.
%%text License details are available on the web at "https://creativecommons.org/licenses/by-sa/4.0/legalcode".

